lib/brands/logos/dropbox.svg

<svg xmlns="http://www.w3.org/2000/svg" fill="none" aria-hidden="true" viewBox="0 0 247 55"><g id="Dropbox"><g id="Group"><g id="Combined Shape"><path fill="#0061FF" fill-rule="evenodd" d="M21.0463 21.7179L7.63843 13.1761L21.1411 4.57408L34.6329 13.1696L48.1256 4.57408L61.6276 13.1761L48.2197 21.7178L61.6278 30.2599L48.1254 38.862L34.633 30.2664L21.1409 38.862L7.63843 30.2599L21.0463 21.7179ZM34.6329 13.1826L48.0308 21.7179L34.633 30.2533L21.2352 21.7178L34.6329 13.1826Z" clip-rule="evenodd"/><path fill="#0061FF" d="M34.7301 50.3148L21.2276 41.7126L34.7301 33.1114L48.2327 41.7126L34.7301 50.3148Z"/></g><g id="Union"><path fill="black" fill-rule="evenodd" d="M179.341 42.5723C175.48 42.5723 172.96 40.7028 171.7 37.6954L171.213 41.9627H165.929V10.6696H171.904V22.6992C173.204 19.6511 175.805 17.9849 179.503 17.9849C185.071 18.0255 189.216 21.8864 189.216 29.6893V30.3802C189.216 38.1831 185.315 42.5723 179.341 42.5723ZM177.39 37.289C180.926 37.289 183.08 35.0132 183.08 30.3802V29.8112C183.08 25.5033 180.723 23.1462 177.471 23.1462C174.098 23.1462 171.782 25.8691 171.782 29.8925V30.3802C171.782 34.7693 174.017 37.289 177.39 37.289Z" clip-rule="evenodd"/><path fill="black" fill-rule="evenodd" d="M191.894 30.7459C191.894 38.4676 196.161 42.5723 203.72 42.5723C210.791 42.5723 215.587 38.4676 215.587 30.7459V30.0957C215.587 22.2928 210.71 17.9849 203.72 17.9849C196.892 17.9849 191.894 22.2115 191.894 30.0957V30.7459ZM209.41 30.6647C209.41 34.9319 207.256 37.2484 203.72 37.2484C200.225 37.2484 198.071 34.8913 198.071 30.6647V30.0957C198.071 25.544 200.347 23.1462 203.761 23.1462C207.215 23.1462 209.41 25.7066 209.41 30.0957V30.6647Z" clip-rule="evenodd"/><path fill="black" d="M214.652 41.9627L223.552 29.9534L215.343 18.6062H222.374L227.129 25.6861L231.924 18.6062H238.915L230.583 29.9127L239.362 41.9627H232.453L227.048 34.3425L221.805 41.9627H214.652Z"/><path fill="black" fill-rule="evenodd" d="M139.316 18.6062V49.9039H145.29V38.1831C146.55 40.906 149.029 42.5723 152.768 42.5723C158.295 42.5723 162.643 38.5489 162.643 30.8272V30.177C162.643 22.2928 158.742 17.9849 152.768 17.9849C148.907 17.9849 146.306 19.9763 145.046 22.9836L144.436 18.6062H139.316ZM156.466 30.7053C156.466 35.0132 154.231 37.3297 150.736 37.3297C147.363 37.3297 145.168 34.7287 145.168 30.5834V30.1363C145.168 25.7878 147.444 23.1868 150.858 23.1868C154.068 23.1868 156.466 25.5033 156.466 30.177V30.7053Z" clip-rule="evenodd"/><path fill="black" fill-rule="evenodd" d="M124.309 42.5723C116.75 42.5723 112.442 38.4676 112.442 30.7459V30.0957C112.442 22.2115 117.481 17.9849 124.309 17.9849C131.299 17.9849 136.135 22.2928 136.135 30.0957V30.7459C136.135 38.4676 131.38 42.5723 124.309 42.5723ZM124.268 37.2484C127.763 37.2484 129.958 34.9319 129.958 30.6647V30.0957C129.958 25.7066 127.763 23.1462 124.309 23.1462C120.895 23.1462 118.619 25.544 118.619 30.0957V30.6647C118.619 34.8913 120.773 37.2484 124.268 37.2484Z" clip-rule="evenodd"/><path fill="black" d="M96.2671 41.9627H102.363V31.2336C102.363 26.2755 103.582 24.528 108.622 24.528H111.141V18.31H109.638C105.289 18.31 102.891 20.2201 101.957 23.959L101.185 18.6062H96.2671V41.9627Z"/><path fill="black" fill-rule="evenodd" d="M69.1902 41.9627V13.0087H80.1329C87.2043 13.0087 92.9752 17.0908 92.9752 26.3974V28.3888C92.9752 37.7361 87.5294 41.9627 80.2954 41.9627H69.1902ZM79.8077 18.2287H75.2629V36.6388H80.0109C83.9937 36.6388 86.7166 33.9972 86.7166 28.1856V26.6819C86.7166 20.8704 83.9124 18.2287 79.8077 18.2287Z" clip-rule="evenodd"/></g></g></g></svg>

<svg xmlns="http://www.w3.org/2000/svg" fill="none" aria-hidden="true" viewBox="0 0 247 55"><g fill="#0061FF"><path fill-rule="evenodd" d="M21.046 21.718 7.638 13.176l13.503-8.602 13.492 8.596 13.493-8.596 13.502 8.602-13.408 8.542 13.408 8.542-13.503 8.602-13.492-8.596-13.492 8.596L7.638 30.26l13.408-8.542Zm13.587-8.535 13.398 8.535-13.398 8.535-13.398-8.535 13.398-8.535Z" clip-rule="evenodd"/><path d="m34.73 50.315-13.502-8.602L34.73 33.11l13.503 8.602-13.503 8.602Z"/></g><g fill="#000"><path fill-rule="evenodd" d="M179.341 42.572c-3.861 0-6.381-1.87-7.641-4.877l-.487 4.268h-5.284V10.67h5.975V22.7c1.3-3.049 3.901-4.715 7.599-4.715 5.568.04 9.713 3.901 9.713 11.704v.691c0 7.803-3.901 12.192-9.875 12.192Zm-1.951-5.283c3.536 0 5.69-2.276 5.69-6.909v-.569c0-4.308-2.357-6.665-5.609-6.665-3.373 0-5.689 2.723-5.689 6.746v.488c0 4.39 2.235 6.909 5.608 6.909Zm14.504-6.543c0 7.722 4.267 11.826 11.826 11.826 7.071 0 11.867-4.104 11.867-11.826v-.65c0-7.803-4.877-12.111-11.867-12.111-6.828 0-11.826 4.227-11.826 12.11v.65Zm17.516-.081c0 4.267-2.154 6.583-5.69 6.583-3.495 0-5.649-2.357-5.649-6.583v-.57c0-4.551 2.276-6.949 5.69-6.949 3.454 0 5.649 2.56 5.649 6.95v.569Z" clip-rule="evenodd"/><path d="m214.652 41.963 8.9-12.01-8.209-11.347h7.031l4.755 7.08 4.795-7.08h6.991l-8.332 11.307 8.779 12.05h-6.909l-5.405-7.62-5.243 7.62h-7.153Z"/><path fill-rule="evenodd" d="M139.316 18.606v31.298h5.974v-11.72c1.26 2.722 3.739 4.388 7.478 4.388 5.527 0 9.875-4.023 9.875-11.745v-.65c0-7.884-3.901-12.192-9.875-12.192-3.861 0-6.462 1.991-7.722 4.999l-.61-4.378h-5.12Zm17.15 12.1c0 4.307-2.235 6.624-5.73 6.624-3.373 0-5.568-2.601-5.568-6.747v-.447c0-4.348 2.276-6.95 5.69-6.95 3.21 0 5.608 2.317 5.608 6.991v.528Zm-32.157 11.866c-7.559 0-11.867-4.104-11.867-11.826v-.65c0-7.884 5.039-12.111 11.867-12.111 6.99 0 11.826 4.308 11.826 12.11v.65c0 7.723-4.755 11.827-11.826 11.827Zm-.041-5.324c3.495 0 5.69-2.316 5.69-6.583v-.57c0-4.388-2.195-6.949-5.649-6.949-3.414 0-5.69 2.398-5.69 6.95v.569c0 4.226 2.154 6.583 5.649 6.583Z" clip-rule="evenodd"/><path d="M96.267 41.963h6.096v-10.73c0-4.957 1.219-6.705 6.259-6.705h2.519V18.31h-1.503c-4.349 0-6.747 1.91-7.681 5.649l-.772-5.353h-4.918v23.357Z"/><path fill-rule="evenodd" d="M69.19 41.963V13.009h10.943c7.071 0 12.842 4.082 12.842 13.388v1.992c0 9.347-5.446 13.574-12.68 13.574H69.19Zm10.618-23.734h-4.545v18.41h4.748c3.983 0 6.706-2.642 6.706-8.453v-1.504c0-5.812-2.805-8.453-6.91-8.453Z" clip-rule="evenodd"/></g></svg>
